Obsidian/actions/22s/view-list-text.svg

<svg height="22" viewBox="0 0 22 22" width="22" xmlns="http://www.w3.org/2000/svg"><path d="m5 6.0000001v1.9999998h12v-1.9999998zm0 3.9999998v2.0000001h12v-2.0000001zm0 4.0000001v2h12v-2z" fill="#bebebe"/></svg>

<svg xmlns="http://www.w3.org/2000/svg" width="22" height="22" version="1.1" viewBox="0 0 22 22">
 <defs>
  <style id="current-color-scheme" type="text/css">
   .ColorScheme-Text { color:#bebebe; } .ColorScheme-Highlight { color:#4285f4; }
  </style>
 </defs>
 <path style="fill:currentColor" class="ColorScheme-Text" d="M 5,6.0000001 V 7.9999999 H 17 V 6.0000001 Z M 5,9.9999999 V 12 H 17 V 9.9999999 Z M 5,14 v 2 h 12 v -2 z"/>
</svg>
